X:1
T:Moment Musicaux Op. 16 No. 4
T:Moment Musicaux
T:Sergei Rachmaninoff
T:Op.16 No. 4
C:Sergei Rachmaninoff
%%score { ( 1 3 4 ) | ( 2 5 ) }
L:1/8
Q:1/4=104
M:4/4
K:G
V:1 treble nm="é‹¼ç´" snm="Pno."
V:3 treble 
V:4 treble 
V:2 bass 
V:5 bass 
V:1
"^Presto" z8 | z4 z2 z3/2 !>!B,/ | !>![EG]15/2 !>!B,/ | !>![EG]15/2 !>!B,/ | %4
 !>![EG]7/2 !>![FA]/ !>![GB]2 (3!>![FA]!>![EG]!>![FA] | !>![GB]4- [GB] z z3/2 !>!E/ | %6
 !>![CG]7/2 !>!B,/ !>![A,^D]7/2 !>!E/ | %7
 z2 (6:4:6(G/E/^D/G/D/=D/ (6:4:6E/D/^C/E/C/=C/ (6:4:6^C/=C/B,/C/^A,/B,/) | %8
 (6:4:6(E,/B,/G/F/G/E/ (6:4:6G/E/^D/G/D/=D/ (6:4:6E/D/^C/E/C/=C/ (6:4:6^C/=C/B,/C/^A,/B,/) | %9
 z2 (6:4:6(G/E/^D/G/D/=D/ (6:4:6E/D/^C/E/C/=C/ (6:4:6^C/=C/B,/C/^A,/B,/) | %10
 z2 (6:4:6(G/E/^D/G/D/=D/ (6:4:6E/D/^C/E/C/=C/ (6:4:6^C/=C/B,/C/^A,/B,/) | %11
 !>![EG]7/2 !>![FA]/ !>![GB]2 (3!>![FA]!>![EG]!>![FA] | %12
 z2 (6:4:6(B/G/F/B/F/=F/ (6:4:6G/F/E/G/E/_E/ (6:4:5=E/_E/D/) z !>!A/ | %13
 !>![CEc]7/2 !>!B/ !>![^DA^d]7/2 !>![Ee]/ | %14
!ff! z2 (6:4:6(G/e/g/f/g/e/ (6:4:6d/g/e/c/g/e/) (6:4:6(G/e/g/f/g/e/) | %15
 (6:4:6([Bb]/e/c/[Aa]/e/c/) (6:4:6(E/c/e/^d/e/c/) (6:4:6([Bb]/e/c/[Aa]/e/c/) (6:4:6(E/c/e/d/e/c/) | %16
 (6:4:6([Gg]/c/A/[=F=f]/c/A/) (6:4:6z/ (A/c/B/c/A/ (6:4:6[Ee]/A/^F/[^D^d]/A/F/) (6:4:6z/ (F/A/^G/A/F/ | %17
"_dim." [E=Ge]2) (6:4:6z/ (E/G/F/G/E/ (6:4:6d/G/E/c/G/E/) (6:4:6z/ (E/G/F/G/E/ | %18
 (6:4:6B/E/C/A/E/C/) (6:4:6z/ (C/E/^D/E/C/ (6:4:6B/E/C/A/E/C/) (6:4:6z/ (C/E/D/E/C/ | %19
 (6:4:6G/C/A,/=F/C/A,/) (6:4:6z/ (A,/C/B,/C/A,/ (6:4:6E/A,/^F,/^D/A,/F,/) (6:4:6z/ (F,/A,/^G,/A,/F,/) | %20
!p! [G,E] z z2 z4 | %21
!mf! z (!tenuto![eg]!tenuto![df]!tenuto![ce] !tenuto![Bd]!tenuto![Ac]!tenuto![GB]!tenuto![FA] | %22
 !tenuto![EG])(!tenuto!e !tenuto![Bd]!tenuto![Ac] !tenuto![=GB]!tenuto![FA] !tenuto![EG]>[^DF] | %23
"_cresc." !>!E3) ([^DF] [EG]2) (3!tenuto![E^G]!tenuto![FA]!tenuto![GB] | [Ac]15/2 !>![B^gb]/ | %25
!ff! z2 (6:4:6(c/A/^G/c/G/=G/ (6:4:6A/G/F/A/F/=F/!>(! (6:4:6^F/=F/E/F/^D/E/)!>)! | %26
!ppp! z (!tenuto![gb]!tenuto![fa]!tenuto![eg] !tenuto![df]!tenuto![ce]!tenuto![Bd]!tenuto![Ac] | %27
 !tenuto![GB])(!tenuto![fa]!tenuto![eg]!tenuto![df] !tenuto![ce]!tenuto![Bd]!tenuto![Ac]!tenuto![GB]) | %28
"_cresc. sempre" (!>![GA][eg]) (!>![^dg][GA]) (!>![GA][eg]) (!>![df][FA]) | %29
 (!>![=FA][d=f]) (!>![df][F^G]) (!>![FA][df]) (!>![de][EG]) | %30
 (!>![E=G][ce]) (!>![c^d][^DF]) (!>![DF][Bd]) (!>![B=d][=D=F]) | %31
 (!>![DE][Bd]) (!>![^A^c][^CE]) (!>![CE][=Ac]) (!>![A=c][=C^D]) | %32
 (!>![GB]E) (!>![G_B][_B,E]) (!>![EA]A,) (!>![E^G]^G,) | %33
 (!>![E=G]=G,) (!>![^CEG]G,) (!>![=CEG]=G,) (!>![B,EG]G,) | %34
[Q:1/4=30]!fff! (6:4:6z/[Q:1/4=104] (e'/g'/f'/g'/e'/ (6:4:6!>!g'/e'/^d'/!>!g'/d'/=d'/ (6:4:6!>!g'/d'/^c'/e'/^a/=a/ (6:4:6^a/g/f/g/e/^d/) | %35
 (6:4:6(e/^A/=A/^A/G/F/ (6:4:6G/E/^D/E/^A,/=A,/"_dim." (6:4:6^A,/[K:bass]G,/F,/G,/!tenuto!^D,/!tenuto!E,/ (6:4:6!tenuto!F,/!tenuto!G,/[K:treble]!tenuto!^A,/!tenuto!^D/!tenuto!E/!tenuto![DF]/) | %36
!pp! [EG]7/2 [^DF]/"_cresc." [EG]7/2 [DF]/ | %37
 [EG]>[F^df] [Geg]>!>![f^d'f']!f! !>![ge'g']7/2 [F,^A,F]/ | %38
!mf! [G,B,G]7/2 [F,^A,F]/"_cresc." [G,B,G]7/2 [F,A,F]/ | %39
 (3[G,B,G][F^df][Geg] (3[Geg]!>![f^d'f']!>![ge'g']!ff! !>![ge'g']4 | %40
[Q:1/4=30]!fff! (6:4:6z/[Q:1/4=80] !>![f^d'f']/!>![ge'g']/[Q:1/4=104](!>![gg']/e'/^d'/) (6:4:6(!>![gg']/d'/=d'/)(!>![gg']/d'/^c'/) (6:4:6(!>!g/^c/=c/)(!>!g/c/B/) (6:4:6(G/B,/A,/B,/A,/G,/) | %41
[Q:1/4=30] (6:4:6z/[Q:1/4=80] !>![f^d'f']/!>![ge'g']/[Q:1/4=104](!>![gg']/e'/^d'/) (6:4:6(!>![gg']/d'/=d'/)(!>![gg']/d'/^c'/) (6:4:6(!>!g/^c/=c/)(!>!g/c/B/) (6:4:6(G/B,/A,/B,/A,/G,/) | %42
!ff! (6:4:6!>![EG]/[I:staff +1](x/x/)[I:staff -1]!>![EG]/[I:staff +1](x/x/)[I:staff -1] (6:4:6!>![EG]/[I:staff +1](x/x/)[I:staff -1]!>![EG]/[I:staff +1](x/x/)[I:staff -1] (6:4:6!>![EG]/[I:staff +1](x/x/)[I:staff -1]!>![EG]/[I:staff +1](x/x/)[I:staff -1] (6:4:6!>![EG]/[I:staff +1](x/x/)[I:staff -1]!>![EG]/[I:staff +1](x/x/) | %43
[I:staff -1] (6:4:6(!>![EG]/D/^D/)(!>![EG]/^C/=D/) (6:4:6(!>![EG]/=C/^C/)(!>![EG]/C/D/) (6:4:6(!>![EG]/B,/=C/)(!>![EG]/C/^C/)!<(! (6:4:6(!>![^DG]/^A,/B,/)(!>![DG]/B,/=C/)!<)! | %44
[Q:1/4=144]"^PiÃ¹ vivo"[Q:1/4=112]!fff! (6:4:6(!>!E,/B,/G/F/G/E/) (6:4:6(!>!g/e/^d/)(!>!g/d/=d/) (6:4:6(!>!g/d/^c/)(!>!G/^C/=C/) (6:4:6(^C/=C/B,/C/^A,/B,/) | %45
 (6:4:6(E,/B,/G/F/G/E/) (6:4:6(g/e/^d/)(g/d/=d/) (6:4:6(g/d/^c/)(G/^C/=C/) (6:4:6(^C/=C/B,/C/^A,/) !>![B,B]/ | %46
 (6:4:5z x/ (F/G/E/) (6:4:6(g/e/^d/)(g/d/=d/) (6:4:6(g/d/^c/)(G/^C/=C/) (6:4:6(^C/=C/B,/C/^A,/) !>![B,B]/ | %47
 (6:4:4z3/2 (F/G/E/) (6:4:6(g/e/^d/)(g/d/) z/ (6:4:6z/ (=d/^c/)(g/c/) !>![E=ce]/ (6:4:6z/ (c/B/)((c/^A/)) !>![^DB^d]/ | %48
 z8 | %49
 (6:4:5z x/ (F/G/E/) (6:4:6(g/e/^d/)(g/d/=d/) (6:4:6(g/d/^c/)(G/^C/=C/) (6:4:6(^C/=C/B,/C/^A,/B,/) | %50
 !>![CG]7/2 !>!B,/ !>![A,^D]7/2 !>!E/ | %51
!>(! z!>)!!mf! (!tenuto![eg]!tenuto![df]!tenuto![ce] !tenuto![Bd]!tenuto![Ac]!tenuto![=GB]!tenuto![FA] | %52
 !tenuto![EG])(!tenuto!e !tenuto![Bd]!tenuto![Ac] !tenuto![=GB]!tenuto![FA] !tenuto![EG]!<(!!tenuto![^DF])!<)! | %53
!fff! (6:4:6z/ (B/g/f/g/e/) (6:4:6([gg']/e'/^d'/[gg']/d'/=d'/) (6:4:6([gg']/d'/^c'/g/^c/=c/) (6:4:6(^c/=c/B/c/^A/) !>![Bb]/ | %54
 (6:4:6z/ (B/g/f/g/e/) (6:4:6([gg']/e'/^d'/)([gg']/d'/) !>![f=d'f']/ !>![ge'g']/!>![e^c'e']/!>![ge'g']/!>![^d=c'^d']/ !>![ge'g']/!>![cac']/!>![ge'g']/ z/4 !>![Bb]/4 | %55
 (6:4:6z/ (B/g/f/g/e/ g) z z4 | %56
 (6:4:6z/ D/B/A/B/G/ (6:4:6(b/g/f/)(b/f/=f/) (6:4:6(b/f/e/)(B/E/_E/) (6:4:5(=E/_E/D/) z !>![A,A]/ | %57
 [CEc]7/2 !>![B,B]/ !>![^DA^d]7/2 !>![Ee]/ | %58
[Q:1/4=116]"^Prestissimo"[Q:1/4=116]!ffff! z2!8va(! (6:4:6(g/e'/g'/f'/g'/e'/) (6:4:6d'/g'/e'/d'/g'/e'/ (6:4:6(g/e'/g'/f'/g'/e'/) | %59
 (6:4:6(([bb']/e'/c'/[aa']/)e'/c'/)!8va)! (6:4:6(e/c'/e'/^d'/e'/c'/)!8va(! (6:4:6(([bb']/e'/c'/[aa']/)e'/c'/)!8va)! (6:4:6(e/c'/e'/d'/e'/c'/) | %60
 (6:4:6(([gg']/c'/a/[=f=f']/)c'/a/) (6:4:6(c/a/c'/b/c'/a/) (6:4:6(([ee']/a/^f/[^d^d']/)a/f/) (6:4:6(A/f/a/^g/a/f/) | %61
 [e=ge']2 (6:4:6G/e/g/f/g/e/ (6:4:6d/g/e/c/g/e/ (6:4:6G/e/g/f/g/e/ | %62
 (6:4:6[Bb]/e/c/[Aa]/e/c/ (6:4:6E/c/e/^d/e/c/ (6:4:6[Bb]/e/c/[Aa]/e/c/ (6:4:6E/c/e/d/e/c/ | %63
 (6:4:6(([Gg]/c/A/[=F=f]/)c/A/) (6:4:6z/ (A/c/B/c/A/) (6:4:6(([Ee]/A/^F/[^D^d]/)A/F/) (6:4:6z/ ((F/A/^G/A/F/) | %64
 [E=Ge]) (3!>![EG]/[I:staff +1](x/x/)[I:staff -1] (6:4:6!>![EG]/[I:staff +1](x/x/)[I:staff -1]!>![EG]/[I:staff +1](x/x/)[I:staff -1] (6:4:6!>![EG]/[I:staff +1](x/x/)[I:staff -1]!>![EG]/[I:staff +1](x/x/)[I:staff -1] (6:4:6!>![EG]/[I:staff +1](x/x/)[I:staff -1]!>![EG]/[I:staff +1](x/x/) | %65
[I:staff -1] (6:4:6!>![EG]/[I:staff +1](x/x/)[I:staff -1]!>![B,E]/[I:staff +1](x/x/)[I:staff -1][K:bass] (6:4:6!>![G,B,]/[I:staff +1](x/x/)[I:staff -1]!>![E,G,]/[I:staff +1](x/x/)[I:staff -1] (6:4:6!>![B,,E,]/[I:staff +1](x/x/)[I:staff -1]!>![G,,B,,]/[I:staff +1](x/x/)[I:staff -1] (6:4:6!>![E,,G,,]/[I:staff +1](x/x/)[I:staff -1]!>![B,,,E,,]/[I:staff +1](x/x/) | %66
[I:staff -1] z2[K:treble][Q:1/4=80] .[gbe'g']2 z4 |] %67
V:2
!ff!!ped! (6:4:6(E,,/B,,/G,/F,/G,/E,/ (6:4:6G,/E,/^D,/G,/D,/=D,/!ped-up!!ped! (6:4:6E,/D,/^C,/E,/C,/=C,/ (6:4:6^C,/=C,/B,,/C,/^A,,/B,,/)!ped-up! | %1
!ped! (6:4:6(E,,/B,,/G,/F,/G,/E,/ (6:4:6G,/E,/^D,/G,/D,/=D,/!ped-up!!ped! (6:4:6E,/D,/^C,/E,/C,/=C,/ (6:4:6^C,/=C,/B,,/C,/^A,,/B,,/)!ped-up! | %2
!ped! (6:4:6(E,,/B,,/G,/F,/G,/E,/ (6:4:6G,/E,/^D,/G,/D,/=D,/!ped-up!!ped! (6:4:6E,/D,/^C,/E,/C,/=C,/ (6:4:6^C,/=C,/B,,/C,/^A,,/B,,/)!ped-up! | %3
!ped! (6:4:6(E,,/B,,/G,/F,/G,/E,/ (6:4:6G,/E,/^D,/G,/D,/=D,/!ped-up!!ped! (6:4:6E,/D,/^C,/E,/C,/=C,/ (6:4:6^C,/=C,/B,,/C,/^A,,/B,,/)!ped-up! | %4
!ped! (6:4:6(E,,/B,,/G,/F,/G,/E,/ (6:4:6G,/^C,/=C,/G,/C,/B,,/)!ped-up!!ped! (6:4:6(E,,/B,,/G,/F,/G,/E,/ (6:4:6A,,/E,/C/B,/C/A,/)!ped-up! | %5
!ped! (6:4:6(E,,/B,,/G,/F,/G,/E,/ (6:4:6G,/E,/^D,/G,/D,/=D,/!ped-up!!ped! (6:4:6E,/D,/^C,/E,/C,/=C,/ (6:4:6^C,/=C,/B,,/C,/^A,,/B,,/)!ped-up! | %6
!ped! (6:4:6([A,,,A,,]/E,/G,/F,/G,/E,/ (6:4:6C/G,/E,/F,/G,/E,/)!ped-up!!ped! (6:4:6([B,,,B,,]/F,/A,/G,/A,/F,/ (6:4:6B,/A,/F,/G,/A,/F,/)!ped-up! | %7
!ped! (6:4:6(E,,/B,,/G,/F,/G,/E,/ (6:4:6G,/E,/^D,/G,/D,/=D,/ (6:4:6E,/D,/^C,/E,/C,/=C,/ (6:4:6^C,/=C,/B,,/C,/^A,,/B,,/)!ped-up! | %8
!ped! (6:4:6(E,,/B,,/G,/F,/G,/E,/ (6:4:6G,/E,/^D,/G,/D,/=D,/ (6:4:6E,/D,/^C,/E,/C,/=C,/ (6:4:6^C,/=C,/B,,/C,/^A,,/B,,/)!ped-up! | %9
!ped! (6:4:6(E,,/B,,/G,/F,/G,/E,/ (6:4:6G,/E,/^D,/G,/D,/=D,/ (6:4:6E,/D,/^C,/E,/C,/=C,/ (6:4:6^C,/=C,/B,,/C,/^A,,/B,,/)!ped-up! | %10
!ped! (6:4:6(E,,/B,,/G,/F,/G,/E,/ (6:4:6G,/E,/^D,/G,/D,/=D,/ (6:4:6E,/D,/^C,/E,/C,/=C,/ (6:4:6^C,/=C,/B,,/C,/^A,,/B,,/)!ped-up! | %11
!ped! (6:4:6(E,,/B,,/G,/F,/G,/E,/ (6:4:6G,/^C,/=C,/G,/C,/B,,/)!ped-up!!ped! (6:4:6(E,,/B,,/G,/F,/G,/E,/)!ped-up!!ped! (6:4:6(D,,/D,/C/B,/C/D,/)!ped-up! | %12
!ped! (6:4:6(G,,/D,/B,/A,/B,/G,/ (6:4:6B,/G,/F,/B,/F,/=F,/ (6:4:6G,/F,/E,/G,/E,/_E,/ (6:4:6=E,/!ped-up!_E,/D,/E,/^C,/D,/) | %13
!ped! (6:4:6([A,,,A,,]/E,/G,/F,/G,/E,/ (6:4:6C/G,/E,/F,/G,/E,/)!ped-up!!ped! (6:4:6([B,,,B,,]/F,/A,/G,/A,/F,/ (6:4:6^D/A,/F,/G,/A,/F,/)!ped-up! | %14
!ped! (6:4:6[E,,,E,,]/(B,,/G,/F,/G,/E,/)!ped-up!!ped! (6:4:6(D/G,/E,/C/G,/E,/)!ped-up!!ped! (6:4:6(E,,/B,,/G,/F,/G,/E,/)!ped-up!!ped! (6:4:6(D/G,/E,/C/G,/E,/)!ped-up! | %15
!ped! (6:4:6(E,,/C,/E,/^D,/E,/C,/)!ped-up!!ped! (6:4:6(B,/E,/C,/A,/E,/C,/)!ped-up!!ped! (6:4:6(E,,/C,/E,/D,/E,/C,/)!ped-up!!ped! (6:4:6(B,/E,/C,/A,/E,/C,/)!ped-up! | %16
!ped! (6:4:6(E,,/C,/A,/B,/C/A,/)!ped-up!!ped! (6:4:6(G/C/A,/=F/C/A,/)!ped-up!!ped! (6:4:6(E,,/B,,/^F,/^G,/A,/F,/)!ped-up!!ped! (6:4:6(E/A,/F,/^D/A,/F,/)!ped-up! | %17
!ped! (6:4:6(E,,/B,,/G,/F,/G,/E,/)!ped-up!!ped! (6:4:6(D/G,/E,/C/G,/E,/)!ped-up!!ped! (6:4:6(E,,/B,,/G,/F,/G,/E,/)!ped-up!!ped! (6:4:6(D/G,/E,/C/G,/E,/)!ped-up! | %18
!ped! (6:4:6(E,,/C,/E,/^D,/E,/C,/)!ped-up!!ped! (6:4:6(B,/E,/C,/A,/E,/C,/)!ped-up!!ped! (6:4:6(E,,/C,/E,/D,/E,/C,/)!ped-up!!ped! (6:4:6(B,/E,/C,/A,/E,/C,/)!ped-up! | %19
!ped! (6:4:6(E,,/A,,/C,/B,,/C,/A,,/)!ped-up!!ped! (6:4:6(G,/C,/A,,/=F,/C,/A,,/)!ped-up!!ped! (6:4:6(E,,/^F,,/A,,/^G,,/A,,/F,,/)!ped-up!!ped! (6:4:6(E,/C,/B,,/^D,/C,/B,,/)!ped-up! | %20
!ped! (6:4:6(E,,/B,,/G,/F,/G,/E,/ (6:4:6G,/E,/^D,/G,/D,/=D,/!ped-up!!ped! (6:4:6E,/D,/^C,/E,/C,/=C,/!<(! (6:4:6^C,/=C,/B,,/C,/^A,,/B,,/)!ped-up!!<)! | %21
!ped! (6:4:6(E,,/B,,/G,/F,/G,/E,/ (6:4:6^A,/B,/G,/B,/C/G,/)!ped-up!!ped! (6:4:6(F,,/D,/=A,/^G,/A,/D,/ (6:4:6A,/B,/^D,/B,/C/D,/)!ped-up! | %22
!ped! (6:4:6(G,,/E,/B,/^A,/B,/E,/)!ped-up!!ped! (6:4:6(=A,,/E,/=A,/^G,/A,/F,/!ped-up!!ped! (6:4:6B,/C/A,/^D/E/C/)!ped-up!!ped! (6:4:6(B,,/A,/B,/A,/B,/B,,/)!ped-up! | %23
!ped! (6:4:6(C,/G,/C/B,/C/A,/ (6:4:6C/A,/_A,/C/A,/G,/)!ped-up!!ped! (6:4:6(!>!C,/G,/C/B,/C/G,/)!ped-up!!ped! (6:4:6(!>!B,,/^G,/C/B,/C/G,/)!ped-up! | %24
!ped! (6:4:6(!>!A,,/E,/C/B,/C/A,/ (6:4:6C/A,/^G,/C/G,/=G,/ (6:4:6A,/G,/^F,/A,/F,/=F,/ (6:4:6^F,/=F,/E,/F,/^D,/E,/)!ped-up! | %25
!ped! (6:4:6([A,,,A,,]/E,/C/B,/C/A,/ (6:4:6C/A,/^G,/C/G,/=G,/ (6:4:6A,/G,/^F,/A,/F,/=F,/ (6:4:6^F,/=F,/E,/F,/^D,/E,/)!ped-up! | %26
!ped! (6:4:6(A,,/E,/A,/[K:treble]B,/C/D/ (6:4:6^D/!ped-up!E/F/G/A/B/!ped! (6:4:6[=DA]/G/F/E/D/C/ (6:4:6B,/!ped-up![K:bass]A,/G,/F,/E,/D,/) | %27
!ped! (6:4:6(G,,/D,/G,/A,/[K:treble]B,/C/ (6:4:6^C/!ped-up!D/E/F/G/A/!ped! (6:4:6[=CG]/F/E/D/C/[K:bass]B,/ (6:4:6A,/!ped-up!G,/F,/E,/D,/^C,/) | %28
!ped! (6:4:6(=C,/A,/E/)z/(B,/!ped-up!A,/!ped! (6:4:6B,,/A,/^D/)z/(B,/!ped-up!A,/!ped! (6:4:6C,/A,/E/)z/(B,/!ped-up!A,/!ped! (6:4:6B,,/A,/D/)z/(B,/!ped-up!A,/ | %29
"_simile"!ped! (6:4:6C,/A,/=D/)z/(B,/!ped-up!A,/!ped! (6:4:6B,,/^G,/D/)z/(A,/!ped-up!G,/!ped! (6:4:6C,/A,/D/)z/(B,/!ped-up!A,/!ped! (6:4:6B,,/G,/D/)z/(A,/!ped-up!G,/) | %30
!ped! (6:4:6(B,,/=G,/C/)z/(A,/!ped-up!G,/!ped! (6:4:6A,,/F,/C/)z/((G,/!ped-up!F,/!ped! (6:4:6A,,/F,/B,/))z/(G,/!ped-up!F,/!ped! (6:4:6^G,,/=F,/B,/)z/(=G,/!ped-up!F,/ | %31
!ped! (6:4:6^G,,/E,/B,/)z/(=F,/!ped-up!E,/!ped! (6:4:6=G,,/E,/^A,/)z/(F,/!ped-up!E,/!ped! (6:4:6G,,/E,/=A,/)z/(F,/!ped-up!E,/!ped! (6:4:6^F,,/^D,/A,/)z/(E,/!ped-up!D,/) | %32
!ped! (6:4:6(G,,/E,/B,/^A,/B,/G,/)!ped-up!!ped! (6:4:6(E,,/_B,,/G,/F,/G,/E,/)!ped-up!!ped! (6:4:6(^C,,/A,,/E,/^D,/E,/A,,/)!ped-up!!ped! (6:4:6(=C,,/^G,,/E,/D,/E,/G,,/)!ped-up! | %33
!ped! (6:4:6(B,,,/^A,,/B,,/A,,/B,,/B,,,/)!ped-up!!ped! (6:4:6(^A,,,/=A,,/^A,,/=A,,/^A,,/A,,,/)!ped-up!!ped! (6:4:6(=A,,,/^G,,/=A,,/G,,/A,,/A,,,/)!ped-up!!ped! (6:4:6(=G,,,/F,,/=G,,/F,,/G,,/=G,,,/)!ped-up! | %34
!ped! (6:4:6z/[K:treble] (e/g/f/g/e/ (6:4:6!>!g/e/^d/!>!g/d/=d/ (6:4:6!>!g/d/^c/e/^A/=A/ (6:4:6^A/G/F/G/E/^D/)!ped-up! | %35
!ped! E z z2!ped!!ped-up! z4!ped-up!!ped!!ped-up! | %36
[K:bass]!ped! (6:4:6(B,,,/^A,,/B,,/A,,/B,,/A,,/ (6:4:6B,,/B,,,/A,,/B,,/B,,,/B,,/)!ped-up!!ped! (6:4:6(C,,/A,,/B,,/A,,/B,,/A,,/ (6:4:6B,,/C,,/A,,/B,,/C,,/B,,/)!ped-up! | %37
!ped! (6:4:6(^C,,/^A,,/B,,/^C,/^A,/B,/ (6:4:6G,/[K:treble]F/G/F/G/E/!ped-up!!ped! (6:4:6e/G/E/F/G/E/ (6:4:6G/!>(!E/[K:bass]G,/F,/G,/E,/)!ped-up!!>)! | %38
!ped! (6:4:6(D,,/^A,,/B,,/A,,/B,,/A,,/ (6:4:6B,,/D,,/A,,/B,,/D,,/B,,/)!ped-up!!ped! (6:4:6(^D,,/A,,/B,,/A,,/B,,/A,,/ (6:4:6B,,/D,,/A,,/B,,/D,,/B,,/)!ped-up! | %39
!ped! (6:4:6(E,,/^A,,/B,,/E,/^A,/B,/ (6:4:6G,/[K:treble]E/G/F/G/E/!ped-up!!ped! (6:4:6e/G/E/F/G/E/ (6:4:6G/!>(!E/[K:bass]G,/F,/G,/E,/)!ped-up!!>)! | %40
!ped! (6:4:6z/ !>![^DF]/!>![EG]/(!>!G/E/^D/) (6:4:6(!>!G/D/=D/)(!>!G/D/^C/) (6:4:6(!>!G/C/=C/)(!>!G/C/B,/) (6:4:6(G,/B,,/A,,/B,,/A,,/G,,/)!ped-up! | %41
!ped! (6:4:6z/ !>![^DF]/!>![EG]/(!>!G/E/^D/) (6:4:6(!>!G/D/=D/)(!>!G/D/^C/) (6:4:6(!>!G/C/=C/)(!>!G/C/B,/)!>(! (6:4:6(G,/B,,/A,,/B,,/A,,/G,,/)!ped-up!!>)! | %42
 (6:4:6x/!ped! !stemless!D/ !stemless!^D/ x/ !stemless!^C/!ped-up!!ped! !stemless!=D/ (6:4:6x/ !stemless!=C/ !stemless!^C/ x/ !stemless!B,/!ped-up!!ped! !stemless!=C/ (6:4:6x/ !stemless!^A,/ !stemless!B,/ x/ !stemless!B,/!ped-up!!ped! !stemless!C/ (6:4:6x/ !stemless!C/ !stemless!^C/ x/ !stemless!C/!ped-up! !stemless!D/ | %43
!ped! z2!ped-up!!ped! !>![A,,,A,,]2!ped-up!!ped! !>![^A,,,^A,,]2!ped-up!!ped! !>![B,,,B,,]2!ped-up! | %44
!ped! (6:4:6[E,,,E,,]/(B,,/G,/F,/G,/E,/) (6:4:6(!>!G/E/^D/)(!>!G/D/=D/)!ped-up!!ped! (6:4:6(!>!G/D/^C/)(!>!G,/^C,/=C,/) (6:4:6(^C,/=C,/B,,/C,/^A,,/B,,/)!ped-up! | %45
!ped! (6:4:6[E,,,E,,]/(B,,/G,/F,/G,/E,/) (6:4:6(G/E/^D/)(G/D/=D/)!ped-up!!ped! (6:4:6(G/D/^C/)(G,/^C,/=C,/) (6:4:6(^C,/=C,/B,,/C,/^A,,/B,,/)!ped-up! | %46
!ped! (6:4:6[E,,,E,,]/(B,,/G,/F,/G,/E,/) (6:4:6(G/E/^D/)(G/D/=D/) (6:4:6(G/D/^C/)(G,/^C,/=C,/) (6:4:6(^C,/=C,/B,,/C,/^A,,/B,,/)!ped-up! | %47
!ped! (6:4:6[E,,,E,,]/(B,,/G,/F,/G,/E,/) (6:4:6(G/E/^D/)(G/D/=D/)!ped-up!!ped! (6:4:6(G/D/^C/)(G,/^C,/=C,/)!ped-up!!ped! (6:4:6(^C,/=C,/B,,/C,/^A,,/B,,/)!ped-up! | %48
!ped! (6:4:6(E,,/B,,/G,/F,/G,/E,/) (6:4:6(G/^C/=C/)(G/C/B,/)!ped-up!!ped! (6:4:6(E,,/B,,/G,/F,/G,/E,/)!ped-up!!ped! (6:4:6(A,,/E,/C/B,/C/A,/)!ped-up! | %49
!ped! (6:4:6(E,,/B,,/G,/F,/G,/E,/) (6:4:6(G/E/^D/)(G/D/=D/) (6:4:6(G/D/^C/)(G,/^C,/=C,/) (6:4:6(^C,/=C,/B,,/C,/^A,,/B,,/)!ped-up! | %50
!ped! (6:4:6([=A,,,=A,,]/E,/G,/F,/G,/E,/ (6:4:6C/G,/E,/F,/G,/E,/)!ped-up!!ped! (6:4:6([B,,,B,,]/F,/A,/G,/A,/F,/ (6:4:6B,/A,/F,/G,/A,/F,/)!ped-up! | %51
!ped! (6:4:6([E,,,E,,]/B,,/G,/F,/G,/E,/ (6:4:6^A,/!ped-up!B,/G,/B,/C/G,/)!ped! (6:4:6(F,,/D,/=A,/^G,/A,/D,/ (6:4:6A,/!ped-up!B,/^D,/B,/C/D,/) | %52
!ped! (6:4:6(G,,/E,/B,/^A,/B,/E,/)!ped-up!!ped! (6:4:6(=A,,/E,/=A,/^G,/A,/F,/!ped-up!!ped! (6:4:6B,/C/A,/^D/E/C/)!ped-up!!ped! (6:4:6(B,,/A,/B,/A,/B,/B,,/)!ped-up! | %53
!ped! (6:4:6[E,,,E,,]/(B,,/G,/F,/G,/E,/) (6:4:6([G,G]/E/^D/)([G,G]/D/=D/) (6:4:6([G,G]/D/^C/)(G,/^C,/=C,/) (6:4:6(^C,/!ped-up!=C,/B,,/C,/^A,,/B,,/) | %54
!ped! (6:4:6[E,,,E,,]/(B,,/G,/F,/G,/E,/) (6:4:6([G,G]/E/^D/)([G,G]/D/=D/)!ped-up!!ped! (6:4:6([G,G]/D/^C/)(G,/^C,/=C,/)!ped-up!!ped! (6:4:7(^C,/=C,/B,,/C,/^A,,/ z/4) B,,/4!ped-up! | %55
!ped! (6:4:6[E,,,E,,]/(B,,/G,/F,/G,/E,/) (6:4:6([G,G]/^C/=C/)([G,G]/C/B,/)!ped-up!!ped! (6:4:6(E,,/B,,/G,/F,/G,/E,/)!ped-up!!ped! (6:4:6(D,,/D,/C/B,/C/D,/)!ped-up! | %56
!ped! (6:4:6[G,,,G,,]/(D,/B,/A,/B,/G,/)[K:treble] (6:4:6(B/G/F/)(B/F/=F/) (6:4:6(B/F/E/)[K:bass](B,/E,/_E,/) (6:4:6(=E,/_E,/D,/E,/^C,/D,/)!ped-up! | %57
!ped! (6:4:6([A,,,A,,]/E,/G,/F,/G,/E,/ (6:4:6C/G,/E,/F,/G,/E,/)!ped-up!!ped! (6:4:6([B,,,B,,]/F,/A,/G,/A,/F,/ (6:4:6^D/A,/F,/G,/A,/F,/)!ped-up! | %58
!ped! (6:4:6[E,,,E,,]/(B,,/G,/[K:treble]F/G/E/!ped-up!!ped! (6:4:6d/G/E/c/G/E/)!ped-up!!ped! (6:4:6(E,/B,/G/F/G/E/!ped-up!!ped! (6:4:6d/G/E/c/G/E/)!ped-up! | %59
[K:bass]!ped! (6:4:6(C,/G,/E/^D/E/C/)!ped-up![K:treble]!ped! (6:4:6(B/E/C/A/E/C/)!ped-up![K:bass]!ped! (6:4:6(C,/G,/E/D/E/C/)!ped-up![K:treble]!ped! (6:4:6(B/E/C/A/E/C/)!ped-up! | %60
[K:bass]!ped! (6:4:6(A,,/E,/C/B,/C/A,/)!ped-up!!ped! (6:4:6(G/C/A,/=F/C/A,/)!ped-up!!ped! (6:4:6(B,,/^F,/A,/^G,/A,/F,/)!ped-up!!ped! (6:4:6(E/A,/F,/^D/A,/F,/)!ped-up! | %61
!ped! (6:4:6E,,/(B,,/G,/F,/G,/E,/)!ped-up!!ped! (6:4:6(D/G,/E,/C/G,/E,/)!ped-up!!ped! (6:4:6(E,,/B,,/G,/F,/G,/E,/)!ped-up!!ped! (6:4:6(D/G,/E,/C/G,/E,/)!ped-up! | %62
!ped! (6:4:6(E,,/C,/E,/^D,/E,/C,/)!ped-up!!ped! (6:4:6(B,/E,/C,/A,/E,/C,/)!ped-up!!ped! (6:4:6(E,,/C,/E,/D,/E,/C,/)!ped-up!!ped! (6:4:6(B,/E,/C,/A,/E,/C,/)!ped-up! | %63
!ped! (6:4:6(E,,/C,/A,/B,/C/A,/)!ped-up!!ped! (6:4:6(G/C/A,/=F/C/A,/)!ped-up!!ped! (6:4:6(E,,/B,,/^F,/^G,/A,/F,/)!ped-up!!ped! (6:4:6(E/A,/F,/^D/A,/F,/)!ped-up! | %64
 [E,,B,,=G,] (3x/ !stemless!D/ !stemless!^D/ (6:4:6x/ !stemless!^C/ !stemless!=D/ x/ !stemless!=C/ !stemless!^C/ (6:4:6x/ !stemless!B,/ !stemless!=C/ x/ !stemless!^A,/ !stemless!B,/ (6:4:6x/ !stemless!=A,/ !stemless!^A,/ x/ !stemless!A,/ !stemless!B,/ | %65
 (6:4:6x/ !stemless!=A,/ !stemless!^A,/ x/ !stemless!E,/ !stemless!F,/ (6:4:6x/ !stemless!D,/ !stemless!^D,/ x/ !stemless!=A,,/ !stemless!^A,,/ (6:4:6x/ !stemless!E,,/ !stemless!F,,/ x/ !stemless!=D,,/ !stemless!^D,,/ (6:4:6x/ !stemless!=A,,,/ !stemless!^A,,,/ x/ !stemless!F,,,/ !stemless!G,,,/ | %66
!ped! z2!ped-up!!f!!ped! .[G,B,EG]2 z4!ped-up! |] %67
V:3
 x8 | x8 | x8 | x8 | x8 | x8 | x8 | !>![G,E]8 | x6 (6:4:6x/ x/ x/ x/ x/ !>!B,/ | !>![EG]15/2 x/ | %10
 !>![EG]15/2 x/ | x8 | !>![GB]7 x | x8 | !>![EGe]8 | (BA) x2 BA x2 | (G=F) x2 (E^D) x2 | x8 | x8 | %19
 x8 | x8 | x8 | x8 | x8 | x8 | !>![cac']8 | x8 | x8 | x8 | x8 | x8 | x8 | x8 | x8 | [^A,EG]8 | %35
 x13/3[K:bass] x7/3[K:treble] x4/3 | x8 | x8 | x8 | x8 | !>![G,CEG]8 | !>![G,CEG]8 | x8 | x8 | x8 | %45
 x8 | (24:16:10!>![Geg]15/2 x/ x/ x/ x/ x/ x/ x/ x/ z/ | %47
 (24:16:8!>![Geg]7/2 x/ x/ x/ x/ [F=df]/ [Geg]3 !>![Geg]3 | %48
 !>![Geg]7/2 !>![Afa]/ !>![Bgb]2 (3!>![Afa]!>![Geg]!>![Afa] | [Bgb]7 (3x/ x/ !>!E/ | x8 | %51
 !>![G,E]2 z2 z4 | x7 (3:2:2z !>![Bb]/ | !>![ge'g']7 x | !>![ge'g']7/2 x/ z4 | %55
 !>![ge'g']7/2 !>![Afa]/ !>![Bgb]2 (3!>![Afa]!>![Geg]!>![Afa] | [Bgb]15/2 x/ | x8 | %58
 !>![EGe]8!8va(! | b'a'!8va)! x2!8va(! b'a'!8va)! x2 | g'=f' x2 e'^d' x2 | x8 | ba x2 ba x2 | %63
 G=F x2 E^D x2 | x8 | x2[K:bass] x6 | x2[K:treble] x6 |] %67
V:4
 x8 | x8 | x8 | x8 | x8 | x8 | x8 | x8 | x8 | x6 (6:4:6x/ x/ x/ x/ x/ !>!B,/ | %10
 x6 (6:4:6x/ x/ x/ x/ x/ !>!B,/ | x8 | x8 | x8 | x4 ([dd'][cc']) x2 | x8 | x8 | x8 | x8 | x8 | x8 | %21
 x8 | x8 | x8 | x8 | x8 | x8 | x8 | x8 | x8 | x8 | x8 | x8 | x8 | x8 | %35
 x13/3[K:bass] x7/3[K:treble] x4/3 | x8 | x8 | x8 | x8 | x8 | x8 | x8 | x8 | x8 | x8 | x8 | %47
 x4 (16:8:16x/ x/ x/ x/ x/ x/ x/ z/ x/ x/ x/ x/ x/ x/ x/ z/ | x8 | x8 | x8 | x8 | x8 | x8 | %54
 x3 (3x/ x/ z/ x4 | x8 | x8 | x8 | x2!8va(! x2 (d''c'') x2 | x2!8va)! x2!8va(! x2!8va)! x2 | x8 | %61
 x4 d'c' x2 | x8 | x8 | x8 | x2[K:bass] x6 | x2[K:treble] x6 |] %67
V:5
 x8 | x8 | x8 | x8 | x8 | x8 | x8 | x8 | x8 | x8 | x8 | x8 | x8 | x8 | x2 (DC) x2 (DC) | %15
 x2 (B,A,) x2 (B,A,) | x2 (G=F) x2 (E^D) | x2 (DC) x2 (DC) | x2 (B,A,) x2 (B,A,) | %19
 x2 (G,=F,) x2 (E,^D,) | x8 | x8 | x8 | x8 | x8 | x8 | x[K:treble] x16/3[K:bass] x5/3 | %27
 x4/3[K:treble] x13/3[K:bass] x7/3 | x8 | x8 | x8 | x8 | x8 | x8 | [F,,,F,,]8[K:treble] | x8 | %36
[K:bass] x8 | x7/3[K:treble] x13/3[K:bass] x4/3 | x8 | x7/3[K:treble] x13/3[K:bass] x4/3 | %40
 !>![C,,G,,E,]8 | !>![C,,G,,E,]8 | x8 | x8 | x8 | x8 | x8 | x8 | x8 | x8 | x8 | x8 | x8 | x8 | x8 | %55
 x8 | x2[K:treble] x3[K:bass] x3 | x8 | x[K:treble] x dc x2 dc | %59
[K:bass] x2[K:treble] (BA)[K:bass] x2[K:treble] (BA) |[K:bass] x2 (G=F) x2 (E^D) | %61
 x2 (DC) x2 (DC) | x2 (B,A,) x2 (B,A,) | x2 (G=F) x2 (E^D) | x8 | x8 | !>![E,,,E,,]4 x4 |] %67

